X:1
T:Nun komm der Heiden Heiland
T:Nun komm der Heiden Heiland
T:Michael Praetorius
C:Michael Praetorius
%%score [ 1 2 3 ]
L:1/8
Q:1/4=140
M:4/4
K:Dmin
V:1 treble nm="MusicXML Part"
V:2 treble nm="MusicXML Part"
V:3 treble-8 nm="MusicXML Part"
V:1
 z4 z2 d2 d8 | B3 c d2 B2 (c4 B2) A2 | G4 z2 F2 c3 A d4 | z2 AB c2 A2 B2 A2 G4 | %4
w: Nun komm,|des sich wun- dert al- * le|Welt, nun komm, nun komm,|des sich wun- dert al- le Welt,|
 B2 c2 d2 B2 G2 A2 B2 G2 | G2 A2 B2 F2 B2 c2 d2 B2 | d2 c2 B2 A2 G8 | z2 D2 A4 z2 d2 d4 | %8
w: des sich wun- dert, des sich wun- dert,|des sich wun- dert, des sich wun- dert|al- * * le Welt,|nun komm, nun komm,|
 z2 G2 c4 z2 F2 F4 | A2 B2 c2 A2 B2 A2 G2 d2 | d8 B4 c4 | d4 B4 c4 B4 | A2 B2 c8 B2 A2 | B8 B8 | %14
w: nun komm, nun komm,|des sich wun- dert al- le Welt, nun|komm, des sich|wun- dert al- le|Welt, _ _ _ _|_ al-|
 A8 G6 A2 !fermata!=B8 |] %15
w: le Welt. _ _|
V:2
 z2 D2 D4 z2 G2 G4 | z2 D2 D4 z2 F2 F4 | D2 E2 F2 D2 E2 F2 G2 D2 | (F2 E)D C4 B,2 C2 D2 B,2 | %4
w: Nun komm, nun komm,|nun komm, nun komm,|des sich wun- dert, des sich wun- dert|al- * le Welt, des sich wun- dert,|
 D8 E4 F2 D2 | E4 F4 G4 D4 | F2 E2 D4 E2 F2 G2 E2 | F3 E D4 D3 E F2 D2 | E3 F G2 E2 D3 E F2 D2 | %9
w: des sich wun- dert,|des sich wun- dert|al- le Welt, des sich wun- dert|al- le Welt, des sich wun- dert,|des sich wun- dert, des sich wun- dert|
 F4 E4 G2 D2 D4 | G2 A2 B2 G2 D2 D2 F4- | F4 D4 E2 F2 G2 D2 | F4 E2 D2 E4 D4 | D4 G8 ^F2 E2 | %14
w: al- le Welt, nun komm,|des sich wun- dert, des sich wun-|* dert, des sich wun- dert|al- * * * le|Welt, al- * *|
 ^F4 F4 !fermata!G16 |] %15
w: * le Welt.|
V:3
 G16 | G8 F8 | B8 (A4 G4) | A8 G8 | G4 B4 c4 B4 | c4 d4 B8 | B8 c8 | d8 B8 | c8 B8 | A8 G8 | %10
w: Nun|komm, der|Hei- den _|Hei- land,|der Jung- frau- en|Kind er- kannt,|des sich|wun- dert|al- *|le Welt,|
 z4 G4 G4 F4 | B8 (A4 G4) | A8 G8- | G8 d8 | d8 !fermata!G16 |] %15
w: Gott solch Ge-|burt ihm _|be- stellt,|_ ihm|be- stellt.|

